images/svg/icons/mail.svg

<?xml version="1.0" encoding="UTF-8" standalone="no"?>
<!-- Created with Inkscape (http://www.inkscape.org/) -->

<svg
   xmlns:dc="http://purl.org/dc/elements/1.1/"
   xmlns:cc="http://creativecommons.org/ns#"
   xmlns:rdf="http://www.w3.org/1999/02/22-rdf-syntax-ns#"
   xmlns:svg="http://www.w3.org/2000/svg"
   xmlns="http://www.w3.org/2000/svg"
   xmlns:xlink="http://www.w3.org/1999/xlink"
   xmlns:sodipodi="http://sodipodi.sourceforge.net/DTD/sodipodi-0.dtd"
   xmlns:inkscape="http://www.inkscape.org/namespaces/inkscape"
   width="100"
   height="100"
   id="svg2"
   version="1.1"
   inkscape:version="0.48.4 r9939"
   sodipodi:docname="mail.svg"
   inkscape:export-filename="/home/damien/Projects/damien.git/SailfishOS/SomaFM/images/icons/icon-s-mail.png"
   inkscape:export-xdpi="28.799999"
   inkscape:export-ydpi="28.799999">
  <defs
     id="defs4">
    <linearGradient
       id="linearGradient3811">
      <stop
         style="stop-color:#000000;stop-opacity:1;"
         offset="0"
         id="stop3813" />
      <stop
         style="stop-color:#ffffff;stop-opacity:1;"
         offset="1"
         id="stop3815" />
    </linearGradient>
    <linearGradient
       inkscape:collect="always"
       xlink:href="#linearGradient3811"
       id="linearGradient3817"
       x1="347.24408"
       y1="439.37006"
       x2="361.41733"
       y2="425.19684"
       gradientUnits="userSpaceOnUse"
       gradientTransform="matrix(1.6674399,0,0,1.6674389,-229.42956,-292.06247)" />
    <linearGradient
       inkscape:collect="always"
       xlink:href="#linearGradient3811-0"
       id="linearGradient3817-3"
       x1="347.24408"
       y1="439.37006"
       x2="361.41733"
       y2="425.19684"
       gradientUnits="userSpaceOnUse" />
    <linearGradient
       id="linearGradient3811-0">
      <stop
         style="stop-color:#ff0000;stop-opacity:1;"
         offset="0"
         id="stop3813-7" />
      <stop
         style="stop-color:#ffffff;stop-opacity:1;"
         offset="1"
         id="stop3815-3" />
    </linearGradient>
    <linearGradient
       gradientTransform="translate(-0.01303364,21.262036)"
       y2="425.19684"
       x2="361.41733"
       y1="439.37006"
       x1="347.24408"
       gradientUnits="userSpaceOnUse"
       id="linearGradient3866"
       xlink:href="#linearGradient3811-0"
       inkscape:collect="always" />
    <linearGradient
       inkscape:collect="always"
       xlink:href="#linearGradient3811"
       id="linearGradient3801"
       gradientUnits="userSpaceOnUse"
       x1="347.24408"
       y1="439.37006"
       x2="361.41733"
       y2="425.19684"
       gradientTransform="translate(-1.7871553,113.38802)" />
    <linearGradient
       inkscape:collect="always"
       xlink:href="#linearGradient3811-7"
       id="linearGradient3817-2"
       x1="347.24408"
       y1="439.37006"
       x2="361.41733"
       y2="425.19684"
       gradientUnits="userSpaceOnUse" />
    <linearGradient
       id="linearGradient3811-7">
      <stop
         style="stop-color:#000000;stop-opacity:1;"
         offset="0"
         id="stop3813-0" />
      <stop
         style="stop-color:#ffffff;stop-opacity:1;"
         offset="1"
         id="stop3815-2" />
    </linearGradient>
    <linearGradient
       inkscape:collect="always"
       xlink:href="#linearGradient3811"
       id="linearGradient3029"
       gradientUnits="userSpaceOnUse"
       gradientTransform="matrix(1.6674399,0,0,1.6674389,-229.42956,-292.06247)"
       x1="347.24408"
       y1="439.37006"
       x2="361.41733"
       y2="425.19684" />
    <linearGradient
       inkscape:collect="always"
       xlink:href="#linearGradient3811"
       id="linearGradient3111"
       gradientUnits="userSpaceOnUse"
       gradientTransform="matrix(4.630262,0,0,4.6302592,-1243.854,-1569.2909)"
       x1="347.24408"
       y1="439.37006"
       x2="361.41733"
       y2="425.19684" />
  </defs>
  <sodipodi:namedview
     id="base"
     pagecolor="#ffffff"
     bordercolor="#666666"
     borderopacity="1.0"
     inkscape:pageopacity="0.0"
     inkscape:pageshadow="2"
     inkscape:zoom="2.828427"
     inkscape:cx="21.269838"
     inkscape:cy="84.721739"
     inkscape:document-units="mm"
     inkscape:current-layer="layer1"
     showgrid="false"
     inkscape:window-width="1366"
     inkscape:window-height="717"
     inkscape:window-x="-2"
     inkscape:window-y="-3"
     inkscape:window-maximized="1"
     inkscape:snap-global="true"
     units="px"
     fit-margin-top="0"
     fit-margin-left="0"
     fit-margin-bottom="0"
     fit-margin-right="0"
     inkscape:snap-bbox="true">
    <inkscape:grid
       type="xygrid"
       id="grid2991"
       empspacing="10"
       visible="true"
       enabled="true"
       snapvisiblegridlinesonly="true"
       empcolor="#ff1111"
       empopacity="0.29411765"
       spacingx="1px"
       spacingy="1px"
       units="px"
       dotted="false"
       color="#0000ff"
       opacity="0.11764706"
       originx="0px"
       originy="0px" />
  </sodipodi:namedview>
  <metadata
     id="metadata7">
    <rdf:RDF>
      <cc:Work
         rdf:about="">
        <dc:format>image/svg+xml</dc:format>
        <dc:type
           rdf:resource="http://purl.org/dc/dcmitype/StillImage" />
        <dc:title></dc:title>
      </cc:Work>
    </rdf:RDF>
  </metadata>
  <g
     inkscape:label="Layer 1"
     inkscape:groupmode="layer"
     id="layer1"
     transform="translate(-354.34317,-371.25583)">
    <path
       style="fill:#000000"
       d=""
       id="path3892"
       inkscape:connector-curvature="0" />
    <path
       style="fill:#000000"
       d=""
       id="path3886"
       inkscape:connector-curvature="0" />
    <path
       style="fill:#000000"
       d=""
       id="path3884"
       inkscape:connector-curvature="0" />
    <path
       style="fill:#000000"
       d=""
       id="path3882"
       inkscape:connector-curvature="0" />
    <g
       id="g3799"
       style="fill:#ffffff">
      <path
         id="rect3096"
         transform="translate(354.34317,371.25583)"
         d="M 15.34375 20 C 12.38773 20 10 22.27694 10 25.125 L 10 27.125 C 10 24.27694 12.38773 22 15.34375 22 L 84.65625 22 C 87.61227 22 90 24.27694 90 27.125 L 90 25.125 C 90 22.27694 87.61227 20 84.65625 20 L 15.34375 20 z M 10 40 L 10 74.875 C 10 77.72306 12.38773 80 15.34375 80 L 84.65625 80 C 87.61227 80 90 77.72306 90 74.875 L 90 40 L 50 70 L 10 40 z "
         style="opacity:1;color:#000000;fill:#ffffff;fill-opacity:0.98823529000000021;fill-rule:nonzero;marker:none;visibility:visible;display:inline;overflow:visible;enable-background:accumulate" />
      <path
         id="path3790"
         transform="translate(354.34317,371.25583)"
         d="M 15.34375 20 C 12.38773 20 9.99998 22.27694 10 25.125 L 10 30 L 50 60 L 90 30 L 90 25.125 C 90 22.27694 87.61227 20 84.65625 20 L 15.34375 20 z "
         style="color:#000000;fill:#ffffff;fill-opacity:0.98823529000000021;fill-rule:nonzero;marker:none;visibility:visible;display:inline;overflow:visible;enable-background:accumulate" />
    </g>
  </g>
</svg>

<svg xmlns="http://www.w3.org/2000/svg" width="100" height="100">
  <g fill="#fff">
    <path d="M15.344 20C12.388 20 10 22.277 10 25.125v2C10 24.277 12.388 22 15.344 22h69.312C87.612 22 90 24.277 90 27.125v-2C90 22.277 87.612 20 84.656 20H15.344zM10 40v34.875C10 77.723 12.388 80 15.344 80h69.312C87.612 80 90 77.723 90 74.875V40L50 70 10 40z" overflow="visible" style="marker:none"/>
    <path d="M15.344 20C12.388 20 10 22.277 10 25.125V30l40 30 40-30v-4.875C90 22.277 87.612 20 84.656 20H15.344z" overflow="visible" style="marker:none"/>
  </g>
</svg>
